X: 35014
T: Roland's Return
R: jig
M: 6/8
K: Dmajor
E|FEF AFF|dFF AFD|GFG ABc|ded cAG|
FEF AFF|dFF AFD|GFG BGB|AFD D2:|
A|d2e fed|ecA AFA|d2e fed|faf gfe|
d2e fed|ecA AFA|GEG BGB|AFD D2:|

